Simply-Red-Circles/scalable/actions/insert-image.svg

<svg xmlns="http://www.w3.org/2000/svg" width="24" height="24"><path fill="#a02c2c" d="M19.176 1.39l-14.35.005a.552.552 0 0 0-.553.552l-.002 14.348c0 .306.247.553.553.553l14.35-.006a.55.55 0 0 0 .553-.551l.002-14.35a.55.55 0 0 0-.553-.55zM17.52 3.599l-.002 9.931-11.038.006.002-9.933 11.038-.004zM9.549 17.707a.633.633 0 0 0-.447.188l-.594.591a.63.63 0 0 0 0 .893l2.453 2.453.594.592a.63.63 0 0 0 .892 0l.594-.594 2.451-2.451a.63.63 0 0 0 0-.893l-.594-.591a.63.63 0 0 0-.892 0l-2.004 2.003-2.008-2.003a.629.629 0 0 0-.445-.188z" color="#000" overflow="visible" style="marker:none"/><path fill="#a02c2c" d="M6.562 13.402l10.876-.105-4.046-4.046-2.154 2.732-2.417-1.944z" opacity=".6"/></svg>

<?xml version="1.0" encoding="UTF-8" standalone="no"?>
<svg
   xmlns:dc="http://purl.org/dc/elements/1.1/"
   xmlns:cc="http://creativecommons.org/ns#"
   xmlns:rdf="http://www.w3.org/1999/02/22-rdf-syntax-ns#"
   xmlns:svg="http://www.w3.org/2000/svg"
   xmlns="http://www.w3.org/2000/svg"
   xmlns:sodipodi="http://sodipodi.sourceforge.net/DTD/sodipodi-0.dtd"
   xmlns:inkscape="http://www.inkscape.org/namespaces/inkscape"
   width="24"
   height="24"
   version="1.1"
   id="svg6"
   sodipodi:docname="insert-image.svg"
   inkscape:version="0.92.4 (5da689c313, 2019-01-14)">
  <metadata
     id="metadata12">
    <rdf:RDF>
      <cc:Work
         rdf:about="">
        <dc:format>image/svg+xml</dc:format>
        <dc:type
           rdf:resource="http://purl.org/dc/dcmitype/StillImage" />
        <dc:title></dc:title>
      </cc:Work>
    </rdf:RDF>
  </metadata>
  <defs
     id="defs10" />
  <sodipodi:namedview
     pagecolor="#ffffff"
     bordercolor="#666666"
     borderopacity="1"
     objecttolerance="10"
     gridtolerance="10"
     guidetolerance="10"
     inkscape:pageopacity="0"
     inkscape:pageshadow="2"
     inkscape:window-width="1078"
     inkscape:window-height="480"
     id="namedview8"
     showgrid="false"
     inkscape:zoom="9.8333333"
     inkscape:cx="-0.81355932"
     inkscape:cy="11.898305"
     inkscape:window-x="0"
     inkscape:window-y="28"
     inkscape:window-maximized="0"
     inkscape:current-layer="svg6" />
  <path
     d="M 19.18,1.39 H 4.83 A 0.55,0.55 0 0 0 4.27,1.95 V 16.3 c 0,0.3 0.25,0.55 0.55,0.55 h 14.35 a 0.55,0.55 0 0 0 0.56,-0.56 V 1.94 A 0.55,0.55 0 0 0 19.18,1.39 Z m -1.66,2.2 v 9.94 H 6.48 V 3.6 H 17.52 Z M 9.55,17.72 A 0.63,0.63 0 0 0 9.1,17.9 l -0.6,0.6 a 0.63,0.63 0 0 0 0,0.89 l 2.46,2.45 0.6,0.6 a 0.63,0.63 0 0 0 0.89,0 l 0.6,-0.6 2.44,-2.45 a 0.63,0.63 0 0 0 0,-0.9 l -0.6,-0.59 a 0.63,0.63 0 0 0 -0.88,0 l -2,2 -2.02,-2 A 0.63,0.63 0 0 0 9.55,17.72 Z"
     overflow="visible"
     style="color:#000000;overflow:visible;fill:#a02c2c;marker:none"
     id="path2"
     inkscape:connector-curvature="0" />
  <path
     d="M 6.56,13.4 17.44,13.3 13.39,9.25 11.24,11.98 8.82,10.04 Z"
     id="path4"
     inkscape:connector-curvature="0"
     style="opacity:0.6;fill:#a02c2c" />
</svg>
